!!!COM: Music21
!!!OTL: barndance_Purple-Glass--The
!!!OMV: barndance_Purple-Glass--The
**kern
*clefG2
*k[]
*M4/4
=1
4cc
=||
8eeL
8ffJ
8eeL
8ccJ
8eeL
8ffJ
4dd
=
8ddL
8eeJ
8ddL
8ccJ
4.b
8cc
=
4.a
8b
8ccL
8eeJ
8ddL
8ccJ
=
8bL
8ccJ
8aL
8bJ
8ccL
8ddJ
4ee
=
8eeL
8ffJ
8eeL
8ccJ
8eeL
8ffJ
4dd
!!linebreak:original
=
8ddL
8eeJ
8ddL
8ccJ
4.b
8cc
=
4.a
8b
8ccL
8eeJ
8ddL
8ccJ
=
8bL
8ccJ
8aL
8bJ
8ccL
8ddJ
4ee
=||
8eeL
8ffJ
8eeL
8ccJ
8eeL
8ffJ
4dd
=
8ddL
8eeJ
8ddL
8ccJ
4.b
8cc
=
4.a
8b
8ccL
8eeJ
8ddL
8ccJ
!!linebreak:original
=
8bL
8ccJ
8aL
8bJ
8ccL
8ddJ
4ee
=
8eeL
8ffJ
8eeL
8ccJ
8eeL
8ffJ
4dd
=
8ddL
8eeJ
8ddL
8ccJ
4.b
8cc
=
4.a
8b
8ccL
8eeJ
8ddL
8ccJ
=
8bL
8ccJ
8aL
8bJ
8ccL
8ddJ
4ee-X
=||
8eeL
8ddJ
8eeL
8ddJ
8ccL
8eeJ
[4dd
!!linebreak:original
=
8ddL]
8ffJ
8ddL
8ccJ
4.b
8dd
=
4.cc
8dd
8bL
8ddJ
8ccL
8gJ
=
8bL
8ddJ
8ccL
8bJ
8gL
8bJ
8ddL
8eeJ
=
8eeL
8ddJ
8eeL
8ddJ
8ccL
8eeJ
4dd
=
8ggL
8ffJ
8ddL
8ccJ
4.b
8dd
=
4.cc
8dd
8bL
8ddJ
4cc
!!linebreak:original
=
2cc
4dd
4ee
=||
*M4/4
4cc
=||
8eeL
8ffJ
8eeL
8ccJ
8eeL
8ffJ
4dd
=
8ddL
8eeJ
8ddL
8ccJ
4.b
8cc
=
4.a
8b
8ccL
8eeJ
8ddL
8ccJ
=
8bL
8ccJ
8aL
8bJ
8ccL
8ddJ
4ee
=
8eeL
8ffJ
8eeL
8ccJ
8eeL
8ffJ
4dd
!!linebreak:original
=
8ddL
8eeJ
8ddL
8ccJ
4.b
8cc
=
4.a
8b
8ccL
8eeJ
8ddL
8ccJ
=
8bL
8ccJ
8aL
8bJ
8ccL
8ddJ
4ee
=||
8eeL
8ffJ
8eeL
8ccJ
8eeL
8ffJ
4dd
=
8ddL
8eeJ
8ddL
8ccJ
4.b
8cc
=
4.a
8b
8ccL
8eeJ
8ddL
8ccJ
!!linebreak:original
=
8bL
8ccJ
8aL
8bJ
8ccL
8ddJ
4ee
=
8eeL
8ffJ
8eeL
8ccJ
8eeL
8ffJ
4dd
=
8ddL
8eeJ
8ddL
8ccJ
4.b
8cc
=
4.a
8b
8ccL
8eeJ
8ddL
8ccJ
=
8bL
8ccJ
8aL
8bJ
8ccL
8ddJ
4ee-X
=||
8eeL
8ddJ
8eeL
8ddJ
8ccL
8eeJ
[4dd
!!linebreak:original
=
8ddL]
8ffJ
8ddL
8ccJ
4.b
8dd
=
4.cc
8dd
8bL
8ddJ
8ccL
8gJ
=
8bL
8ddJ
8ccL
8bJ
8gL
8bJ
8ddL
8eeJ
=
8eeL
8ddJ
8eeL
8ddJ
8ccL
8eeJ
4dd
=
8ggL
8ffJ
8ddL
8ccJ
4.b
8dd
=
4.cc
8dd
8bL
8ddJ
4cc
!!linebreak:original
=
[2cc
8cc]
4dd
8ryy
=||
*-
